resources/haticons/SVG/tablet.svg

<!-- Generated by IcoMoon.io -->
<svg version="1.1" xmlns="http://www.w3.org/2000/svg" width="24" height="24" viewBox="0 0 24 24">
<title>tablet</title>
<path d="M18.75 0h-15c-1.237 0-2.25 1.013-2.25 2.25v19.5c0 1.237 1.013 2.25 2.25 2.25h15c1.237 0 2.25-1.013 2.25-2.25v-19.5c0-1.237-1.013-2.25-2.25-2.25zM11.25 23.25c-0.414 0-0.75-0.336-0.75-0.75s0.336-0.75 0.75-0.75 0.75 0.336 0.75 0.75-0.336 0.75-0.75 0.75zM18 21h-13.5v-18h13.5v18z"></path>
</svg>

<svg xmlns="http://www.w3.org/2000/svg" width="24" height="24"><path d="M18.75 0h-15A2.257 2.257 0 0 0 1.5 2.25v19.5A2.257 2.257 0 0 0 3.75 24h15A2.257 2.257 0 0 0 21 21.75V2.25A2.257 2.257 0 0 0 18.75 0zm-7.5 23.25a.75.75 0 1 1 0-1.5.75.75 0 0 1 0 1.5zM18 21H4.5V3H18v18z"/></svg>
